X:1
T:Love Has Brought Me to Despair
M:6/8
L:1/8
K:Bb
 F| B,D-FB,-D F| EDC B,2 B| BG-GG-A B| c2 F F2 F|F-D F B2 D| B,2 D C2 D|\
E-D C G2 F|F-E C B,2||
